X: 19083
T: Admiral Nelson
O: Niel Gow
B: RSCDS 19-8(I)
R: reel, hornpipe
Z: 1997 by John Chambers <jc:trillian.mit.edu>
M: C|
L: 1/8
%--------------------
K: F
cB \
| "F"A2F2 FAGF | "C7"EGB2 BdcB |1,3 "F"Acde "Dm"fagf |"C7"e2c2 cdcB \
                              :|2,4 "F"Acdf "C7"ecdB | "F"A2F2 F2 :|
|: (3cde \
| "F"fcAc fagf | "C"gece gbag | "F"af"C"ge "G7"fdgf | "C"e2c2 c2fe |
| "Bb"dcBA "Gm"B2gf |  "C7"edcB "F"A2(3cde | "C7"fcdB cABG | "F"A2F2 F2 :|
%%center Book19/19081-Admiral_Nelson-14.abc

%%sep 1 1 500
%%sep 1 1 500

